icons/2_Variations/CODING bg.var.svg

<svg width="1024" height="1024" fill="none" xmlns="http://www.w3.org/2000/svg"><g clip-path="url(#a)"><path d="M512 1024c282.77 0 512-229.23 512-512S794.77 0 512 0 0 229.23 0 512s229.23 512 512 512Z" fill="#728DBE"/><path d="M374.18 544.41c-6.34 0-11.48 6.17-11.48 13.77S367.84 572 374.18 572c6.34 0 11.48-6.17 11.48-13.77s-5.14-13.77-11.48-13.77m272.69 0c-6.34 0-11.48 6.17-11.48 13.77S640.52 572 646.86 572c6.34 0 11.48-6.17 11.48-13.77s-5.14-13.77-11.48-13.77m134.37 12.2c-10.35 3.64-20.61.37-22.92-7.3-2.31-7.67 4.22-16.83 14.57-20.46 10.35-3.63 20.61-.37 22.92 7.3 2.31 7.67-4.22 16.83-14.57 20.46Zm-265.39 155.1c-108.25-.17-195.91-50.09-195.91-121.55 0-1.5.06-3 .13-4.46 0-.49.05-1 .08-1.46.06-1 .16-2 .26-3 .14-1.34.3-2.69.5-4l.06-.4c2.18-14 7.76-35.48 16.18-47.84 20.24-28.65 56.35-47.74 97.54-47.74 31.71 0 60.39 11.33 81.16 29.61 20.77-18.28 49.45-29.61 81.16-29.61 41.19 0 77.3 19.09 97.54 47.74 8.43 12.35 14 33.79 16.18 47.84l.06.4c.344 2.322.597 4.657.76 7 0 .486.027.973.08 1.46.07 1.48.13 3 .13 4.46 0 71.47-87.66 121.39-195.91 121.55ZM265.68 549.31c-2.3 7.67-12.57 10.93-22.92 7.3-10.35-3.63-16.88-12.8-14.57-20.46 2.31-7.66 12.57-10.93 22.92-7.3 10.35 3.63 16.88 12.8 14.57 20.46Zm514.49-76.08c-16.84 0-31.6 10.56-39.85 26.39-28.07-60.16-86.48-115.89-158.65-138.84-38.94-15.35-66.29-44.78-69.67-79.27-3.38 34.44-30.73 63.92-69.67 79.27-72.18 22.95-130.58 78.68-158.65 138.84-8.25-15.83-23-26.39-39.85-26.39C218 473.24 197 498.12 197 528.8s21 55.57 46.83 55.57a40.905 40.905 0 0 0 21.78-6.37c2.22 99.64 111.63 164.33 246.39 164.5 134.76-.17 244.17-64.85 246.39-164.5a40.89 40.89 0 0 0 21.78 6.38C806 584.37 827 559.49 827 528.8c0-30.69-21-55.57-46.83-55.57Z" fill="#fff"/></g><defs><clipPath id="a"><path fill="#fff" d="M0 0h1024v1024H0z"/></clipPath></defs></svg>

<svg width="1024" height="1024" viewBox="0 0 1024 1024" fill="none" xmlns="http://www.w3.org/2000/svg">
<g clip-path="url(#clip0_3_41)">
<path d="M512 1024C794.77 1024 1024 794.77 1024 512C1024 229.23 794.77 0 512 0C229.23 0 0 229.23 0 512C0 794.77 229.23 1024 512 1024Z" fill="#728DBE"/>
<path d="M374.18 544.41C367.84 544.41 362.7 550.58 362.7 558.18C362.7 565.78 367.84 572 374.18 572C380.52 572 385.66 565.83 385.66 558.23C385.66 550.63 380.52 544.46 374.18 544.46M646.87 544.46C640.53 544.46 635.39 550.63 635.39 558.23C635.39 565.83 640.52 572 646.86 572C653.2 572 658.34 565.83 658.34 558.23C658.34 550.63 653.2 544.46 646.86 544.46M781.23 556.66C770.88 560.3 760.62 557.03 758.31 549.36C756 541.69 762.53 532.53 772.88 528.9C783.23 525.27 793.49 528.53 795.8 536.2C798.11 543.87 791.58 553.03 781.23 556.66ZM515.84 711.76C407.59 711.59 319.93 661.67 319.93 590.21C319.93 588.71 319.99 587.21 320.06 585.75C320.06 585.26 320.11 584.75 320.14 584.29C320.2 583.29 320.3 582.29 320.4 581.29C320.54 579.95 320.7 578.6 320.9 577.29L320.96 576.89C323.14 562.89 328.72 541.41 337.14 529.05C357.38 500.4 393.49 481.31 434.68 481.31C466.39 481.31 495.07 492.64 515.84 510.92C536.61 492.64 565.29 481.31 597 481.31C638.19 481.31 674.3 500.4 694.54 529.05C702.97 541.4 708.54 562.84 710.72 576.89L710.78 577.29C711.124 579.612 711.377 581.947 711.54 584.29C711.54 584.776 711.567 585.263 711.62 585.75C711.69 587.23 711.75 588.75 711.75 590.21C711.75 661.68 624.09 711.6 515.84 711.76ZM265.68 549.31C263.38 556.98 253.11 560.24 242.76 556.61C232.41 552.98 225.88 543.81 228.19 536.15C230.5 528.49 240.76 525.22 251.11 528.85C261.46 532.48 267.99 541.65 265.68 549.31ZM780.17 473.23C763.33 473.23 748.57 483.79 740.32 499.62C712.25 439.46 653.84 383.73 581.67 360.78C542.73 345.43 515.38 316 512 281.51C508.62 315.95 481.27 345.43 442.33 360.78C370.15 383.73 311.75 439.46 283.68 499.62C275.43 483.79 260.68 473.23 243.83 473.23C218 473.24 197 498.12 197 528.8C197 559.48 218 584.37 243.83 584.37C251.546 584.343 259.096 582.135 265.61 578C267.83 677.64 377.24 742.33 512 742.5C646.76 742.33 756.17 677.65 758.39 578C764.902 582.139 772.453 584.351 780.17 584.38C806 584.37 827 559.49 827 528.8C827 498.11 806 473.23 780.17 473.23Z" fill="white"/>
</g>
<defs>
<clipPath id="clip0_3_41">
<rect width="1024" height="1024" fill="white"/>
</clipPath>
</defs>
</svg>
